X: 2289
T:Mr Preston's Hornpipe, 2nd setting
M:3/2
L:1/8
K:C
P:1
c4 B4 A4 | A2 e4 A2 BcdB |\
c4 B4 A4 | G2 c4 A2 BcdB ||
P:2
e2 g4    B2 A4 | A2 a4 A2 BcdB |\
d2 g2 B2 g2 A4 | G2 c4 A2 BcdB ||
P:3
cdec BcdB ABcA | A2 d4 A2 BcdB |\
c2 g4  B2 ABcA | G2 c4 A2 BcdB |]
